assets/sonr-icons/diamond.svg

<svg xmlns="http://www.w3.org/2000/svg" width="24" height="24" fill="none" viewBox="0 0 24 24"><path stroke="#000" stroke-linecap="round" stroke-linejoin="round" stroke-width="2" d="M9.50059 8L7.50059 10L9.50059 12M13.4148 19.5858L21.5287 11.4719C22.3319 10.6687 22.3057 9.35857 21.471 8.58809L17.0752 4.53039C16.7057 4.18937 16.2214 4 15.7186 4H8.28256C7.77978 4 7.29545 4.18937 6.926 4.53039L2.53016 8.58809C1.69548 9.35857 1.66929 10.6687 2.47251 11.4719L10.5864 19.5858C11.3674 20.3668 12.6338 20.3668 13.4148 19.5858Z"/></svg>

<svg xmlns="http://www.w3.org/2000/svg" width="24" height="24" fill="none"><path stroke="#000" stroke-linecap="round" stroke-linejoin="round" stroke-width="2" d="m9.5 8-2 2 2 2m3.915 7.586 8.114-8.114a2 2 0 0 0-.058-2.884L17.075 4.53A2 2 0 0 0 15.72 4H8.283a2 2 0 0 0-1.357.53L2.53 8.588a2 2 0 0 0-.057 2.884l8.113 8.114a2 2 0 0 0 2.829 0"/></svg>
